src/icons/svg/lock.svg

<?xml version="1.0" encoding="UTF-8" standalone="no"?>
<svg width="128px" height="128px" viewBox="0 0 128 128" version="1.1" xmlns="http://www.w3.org/2000/svg" xmlns:xlink="http://www.w3.org/1999/xlink">
    <!-- Generator: Sketch 40 (33762) - http://www.bohemiancoding.com/sketch -->
    <title>lock</title>
    <desc>Created with Sketch.</desc>
    <defs></defs>
    <g id="Page-1" stroke="none" stroke-width="1" fill="none" fill-rule="evenodd">
        <g id="lock" fill="#000000">
            <path d="M119.880057,49.6735687 L111.892926,49.6735687 L111.892926,39.5205417 C111.892926,17.7379635 90.4500711,0.0795264715 63.9964422,0.0795264715 C37.5428134,0.0795264715 16.0996029,17.7379635 16.0996029,39.5205417 L16.0996029,49.6735687 L8.11264938,49.6735687 C3.70489609,49.6735687 0.125518155,52.6149097 0.125518155,56.2505349 L0.125518155,121.381379 C0.125518155,125.018029 3.69636524,127.958492 8.11264938,127.958492 L119.880057,127.958492 C124.287455,127.958492 127.867189,125.018029 127.867189,121.381379 L127.867188,56.2505349 C127.859369,52.6149097 124.287455,49.6735687 119.880057,49.6735687 L119.880057,49.6735687 L119.880057,49.6735687 Z M95.9273722,49.6735687 L32.0651567,49.6735687 L32.0651567,39.5205417 C32.0651567,24.9966277 46.3664953,13.2264341 63.9964422,13.2264341 C81.626389,13.2264341 95.9275499,25.0029208 95.9275499,39.5205417 L95.9275499,49.6735687 L95.9273722,49.6735687 L95.9273722,49.6735687 Z" id="Shape"></path>
        </g>
    </g>
</svg>

<svg width="128" height="128" xmlns="http://www.w3.org/2000/svg"><path d="M119.88 49.674h-7.987V39.52C111.893 17.738 90.45.08 63.996.08 37.543.08 16.1 17.738 16.1 39.52v10.154H8.113c-4.408 0-7.987 2.94-7.987 6.577v65.13c0 3.637 3.57 6.577 7.987 6.577H119.88c4.407 0 7.987-2.94 7.987-6.577v-65.13c-.008-3.636-3.58-6.577-7.987-6.577zm-23.953 0H32.065V39.52c0-14.524 14.301-26.295 31.931-26.295 17.63 0 31.932 11.777 31.932 26.295v10.153z" fill-rule="evenodd"/></svg>
